X:1
T:Title
%%score { ( 1 3 ) | 2 }
L:1/8
M:6/8
K:Ab
V:1 treble nm="Grand Piano"
V:3 treble 
V:2 bass 
V:1
 z3 z2[Q:1/4=100] [CE] | [CE]2 [Ec] [Ec]2 [EA] | BAF [CE]2 [CE] | B2 =A B2 E | %4
[M:5/8] [Ec]-[Ec]- [Ec]3 |[M:1/8] [CE] |[M:3/4] [CE]2 [Ec] [Ec]2 [EA] | BA F [CE]2 [Ec] | %8
 [EB]2 [EB] [Ac]2 [A=d] | [Ge]6 | [Ae]4 z2 | BA F [CE]2 [CE] | [DF]2 [FA] [Fd]2 [Fd] | [Ec]6 | %14
 [Ae]4 z2 |[M:7/8] BAF [FA]3 [=EB] |[M:3/4] c2 E c2 B |[M:5/8] [CA]-[CA]- [CA]3 |] %18
V:2
 z3 z2 [A,,A,] | [A,,A,]2 [A,,A,] [A,,A,]2 [C,A,] | [D,F,D]2 [D,A,D] [A,,A,]2 [A,,A,] | %3
 [E,G,D]2 [E,_G,C] [E,=G,D]2 [E,G,D] |[M:5/8] [A,,A,]-[A,,A,]- [A,,A,]3 |[M:1/8] [A,,A,] | %6
[M:3/4] [A,,A,]2 [A,,A,] [A,,A,]2 [C,A,] | [D,F,D]2 [D,A,D] [A,,A,]2 [A,,A,] | %8
 [B,,G,]2 [B,,G,] [B,,B,]2 [B,,B,] | [E,B,]6 | [A,C]A, A, [A,E]3 | %11
 [D,F,D][D,F,D] [D,A,D] [A,,A,]2 [A,,A,] | [D,A,]2 [D,D] [D,A,]2 [D,A,] | [A,,A,]6 | %14
 [A,C]A, A, [A,E]3 |[M:7/8] [D,F,D][D,F,D][D,A,D] [D,D]3 [D,A,] | %16
[M:3/4] [E,A,E]2 [E,A,C] [E,G,E]2 [E,G,D] |[M:5/8] [A,,A,]-[A,,A,]- [A,,A,]3 |] %18
V:3
 x6 | x6 | x6 | x6 |[M:5/8] x5 |[M:1/8] x |[M:3/4] x6 | x6 | x6 | x6 | z C C c3 | x6 | x6 | x6 | %14
 z C C c3 |[M:7/8] x7 |[M:3/4] x6 |[M:5/8] x5 |] %18

